X:1
T:Blackthorn Stick, The
R:jig
M:6/8
L:1/8
K:G
~g3 ege|dBG AGE|DGG FGA|BGB A2e|
gfg age|dBG AGE|DGG FGA|BGG G2d:|
edd gdd|edd gdd|ede ~g3|edB A2e|
gfg age|dBG AGE|DGG FGA|BGG G2d:|
</abc>
